src/objects/clothing/1F45D.svg

<svg id="emoji" viewBox="0 0 72 72" xmlns="http://www.w3.org/2000/svg">
  <g id="grid">
    <path fill="#b3b3b3" d="M68,4V68H4V4H68m4-4H0V72H72V0Z"/>
    <path fill="none" stroke="#00a5ff" stroke-miterlimit="10" stroke-width="0.1" d="M12.923,10.9583H59.0769A1.9231,1.9231,0,0,1,61,12.8814V59.0352a1.9231,1.9231,0,0,1-1.9231,1.9231H12.9231A1.9231,1.9231,0,0,1,11,59.0352V12.8813A1.923,1.923,0,0,1,12.923,10.9583Z"/>
    <rect x="16" y="4" rx="2.2537" width="40" height="64" fill="none" stroke="#00a5ff" stroke-miterlimit="10" stroke-width="0.1"/>
    <rect x="16" y="4" rx="2.2537" width="40" height="64" transform="translate(72) rotate(90)" fill="none" stroke="#00a5ff" stroke-miterlimit="10" stroke-width="0.1"/>
    <circle cx="36" cy="36" r="29" fill="none" stroke="#00a5ff" stroke-miterlimit="10" stroke-width="0.1"/>
  </g>
  <g id="color">
    <path fill="#A57939" stroke="none" stroke-linecap="round" stroke-linejoin="round" stroke-miterlimit="10" stroke-width="2" d="M56.2271,53.8787h-37.194c-3.4707,0-6.2227-2.9267-6.0092-6.3909l1.2581-20.4171c0.1957-3.1753,2.8279-5.6503,6.0092-5.6503 h34.6779c3.1813,0,5.8136,2.4751,6.0092,5.6503l1.2581,20.4171C62.4498,50.952,59.6978,53.8787,56.2271,53.8787z"/>
  </g>
  <g id="hair"/>
  <g id="skin"/>
  <g id="skin-shadow"/>
  <g id="line">
    <path fill="none" stroke="#000000" stroke-linecap="round" stroke-linejoin="round" stroke-miterlimit="10" stroke-width="2" d="M56.2271,53.8787h-37.194c-3.4707,0-6.2227-2.9267-6.0092-6.3909l1.2581-20.4171c0.1957-3.1753,2.8279-5.6503,6.0092-5.6503 h34.6779c3.1813,0,5.8136,2.4751,6.0092,5.6503l1.2581,20.4171C62.4498,50.952,59.6978,53.8787,56.2271,53.8787z"/>
    <path fill="none" stroke="#000000" stroke-linecap="round" stroke-linejoin="round" stroke-miterlimit="10" stroke-width="1.8633" d="M17.3646,30.0178c0.1698-3.1753,1.4545-5.6503,4.2158-5.6503h32.0995c2.7613,0,4.046,2.4751,4.2158,5.6503"/>
    <line x1="13.2921" x2="10.752" y1="21.7573" y2="19.2172" fill="none" stroke="#000000" stroke-linecap="round" stroke-linejoin="round" stroke-miterlimit="10" stroke-width="2"/>
  </g>
</svg>

<svg viewBox="0 0 72 72" xmlns="http://www.w3.org/2000/svg"><path fill="#b3b3b3" d="M68 4v64H4V4h64m4-4H0v72h72V0z"/><path fill="none" stroke="#00a5ff" stroke-miterlimit="10" stroke-width=".1" d="M12.923 10.958h46.154A1.923 1.923 0 0161 12.881v46.154a1.923 1.923 0 01-1.923 1.923H12.923A1.923 1.923 0 0111 59.035V12.881a1.923 1.923 0 011.923-1.923z"/><rect x="16" y="4" rx="2.254" width="40" height="64" fill="none" stroke="#00a5ff" stroke-miterlimit="10" stroke-width=".1"/><rect x="16" y="4" rx="2.254" width="40" height="64" transform="rotate(90 36 36)" fill="none" stroke="#00a5ff" stroke-miterlimit="10" stroke-width=".1"/><circle cx="36" cy="36" r="29" fill="none" stroke="#00a5ff" stroke-miterlimit="10" stroke-width=".1"/><g stroke-linecap="round" stroke-miterlimit="10" stroke-width="6" stroke="#fff" fill="none" stroke-linejoin="round"><path d="M56.227 53.879H19.033a6.02 6.02 0 01-6.01-6.391l1.259-20.417a6.02 6.02 0 016.01-5.65h34.677a6.02 6.02 0 016.01 5.65l1.257 20.417a6.02 6.02 0 01-6.009 6.39z"/><path d="M17.365 30.018c.17-3.175 1.454-5.65 4.215-5.65h32.1c2.761 0 4.046 2.475 4.216 5.65m-44.604-8.261l-2.54-2.54"/></g><path fill="#A57939" d="M56.227 53.879H19.033a6.02 6.02 0 01-6.01-6.391l1.259-20.417a6.02 6.02 0 016.01-5.65h34.677a6.02 6.02 0 016.01 5.65l1.257 20.417a6.02 6.02 0 01-6.009 6.39z"/><g fill="none" stroke="#000" stroke-linecap="round" stroke-linejoin="round" stroke-miterlimit="10"><path stroke-width="2" d="M56.227 53.879H19.033a6.02 6.02 0 01-6.01-6.391l1.259-20.417a6.02 6.02 0 016.01-5.65h34.677a6.02 6.02 0 016.01 5.65l1.257 20.417a6.02 6.02 0 01-6.009 6.39z"/><path stroke-width="1.863" d="M17.365 30.018c.17-3.175 1.454-5.65 4.215-5.65h32.1c2.761 0 4.046 2.475 4.216 5.65"/><path stroke-width="2" d="M13.292 21.757l-2.54-2.54"/></g></svg>
